X: 70
T: Alişimin Kaşları Kare
C: (Anonim)
O: Turkey
F: http://compmusic.upf.edu/node/140
N: ussak--rumeliturkusu--nimsofyan--alisimin_kaslari--
N: makam= ussak
N: form= rumeliturkusu
N: usul= nimsofyan = 2/4
M: 2/4
L: 1/16
K: C _2/4B   
Q: 1/4=84
%%MIDI tuningsystem comma53
A6G2  | e2d2 d2cd  | c2B2 A2G2  | e2d2 d2cd  | \
w:  ARANAĞME  |   |   |   | 
c2B2 A2G2  | e2d2 d2cd  | 
w:   |   | 
c2_1/4B2 c_2/4BAc  | BAGB A4  | A6G2  | \
w:   |   |   | 
e2d2 d2cd  | c2B2 A2G2  | 
w:   |   | 
e2d2 d2cd  | c2B2 A2G2  | e2d2 d2cd  | c2_1/4B2 c_2/4BAc  | \
w:   |   |   |   | 
BAGB AGA_1/4B  | 
w:   | 
cdef eddc  | d2ed d4  | z4 c2d2  | d4 d4  | \
w:   |   |  A li  |  şi min   | 
c4 d2d2  | e3d c2d2  | 
w:  kaş la rı   |  ka  | 
c2_1/4B2 e2d2  | edc6  | c2_1/4B2 d4  | \
w:   |  re   |  *  *  a  | 
dcBA _1/4B2c2  | c_1/4B{c}_2/4BA _1/4B2zd  | 
w:  man    |  *  *  *  *  *  *  SAZ  | 
cBAG _1/4B2c2  | _1/4B2d2 c2_2/4B2  | \
w:  *  *  *  *  Sen_ aç  |  tın   | 
A3c B2A2  | AGG^F G2AB  | 
w:  sî  |   | 
AGG^F G4  | d4 e4  | e4 f3e  | d4 ^c2d2  | \
w:   |  ne me   |  *  ya  |   | 
e3d {d}d4  | d8  | d2^c2 =B3c  | 
w:  *  *  *  re    |   |  *  SAZ  | 
d2ef edd^c  | d2{e}d^c =B3c  | d2ef edd^c  | \
w:   |   |   | 
d2e^f g4  | 
w:   | 
g2g2 g2f2  | e2d2 c4  | d2d2 e3d  | c2d2 c2_1/4B2  | \
w:  Bu la ma  |  dım  *  der  |  di me  ça  |   | 
e2d2 edc2  | c4 c2_1/4B2  | 
w:  *  *  re   |   | 
d4 dcBA  | _1/4B2c2 cB{c}_2/4BA  | _1/4B2zd c_2/4BAG  | \
w:  a man    |   |  *  SAZ  | 
_1/4B2c2 B2d2  | 
w:  Gör me dim   | 
c2B2 A3c  | B2A2 AGG^F  | G2AB AGG^F  | \
w:  *  *  hiç   |   |   | 
G4 d4  | e2^f2 g2=f2  | 
w:  *  ah   |  ci van_ A li  | 
e2d2 c2d2  | c2BA _1/4B2c2  | _1/4B2d2 c2B2  | \
w:  şi mi  Tu na   |  bo  |   | 
cBA6  | A4 d4  | dcBA _1/4B2c2  | 
w:  yun  |   |  da    | 
c_1/4B{c}_2/4BA _1/4B2zd  | cBAG _1/4B2c2  | \
w:  *  *  *  *  *  *  SAZ  |  *  *  *  *  Gör me  | 
_1/4B2d2 c2_2/4B2  | A3c B2A2  | 
w:  dim   |  hiç   | 
AGG^F G2AB  | AG{A}G^F G4  | d4 e2^f2  | \
w:   |   |  ah  ars lan_  | 
g2f2 e2d2  | c2d2 c2BA  | 
w:  A li şi mi   |  Tu na  bo  | 
_1/4B2c2 B2d2  | c2_1/4B2 c_2/4BA2  | \
w:   |  *  *  yun  | 
A4 e4  | d2cB A4  | A6G2  | e2d2 d2cd  | 
w:   |  da    |  ARANAĞME  |   | 
c2B2 A2G2  | e2d2 d2cd  | c2B2 A2G2  | e2d2 d2cd  | \
w:   |   |   |   | 
c2_1/4B2 c_2/4BAc  | 
w:   | 
BAGB A4  | A6G2  | e2d2 d2cd  | c2B2 A2G2  | \
w:   |   |   |   | 
e2d2 d2cd  | 
w:   | 
c2B2 A2G2  | e2d2 d2cd  | c2_1/4B2 c_2/4BAc  | \
w:   |   |   | 
BAGB AGA_1/4B  | 
w:   | 
cdef eddc  | d2ed d4  | z4 c2d2  | d4 d4  | \
w:   |   |  A li  |  şi min   | 
c4 d2d2  | e3d c2d2  | 
w:  kaş la rı   |  ka  | 
c2_1/4B2 e2d2  | edc6  | c2_1/4B2 d4  | \
w:   |  re   |  *  *  a  | 
dcBA _1/4B2c2  | c_1/4B{c}_2/4BA _1/4B2zd  | 
w:  man    |  *  *  *  *  *  *  SAZ  | 
cBAG _1/4B2c2  | _1/4B2d2 c2_2/4B2  | \
w:  *  *  *  *  Sen_ aç  |  tın   | 
A3c B2A2  | AGG^F G2AB  | 
w:  sî  |   | 
AGG^F G4  | d4 e4  | e4 f3e  | d4 ^c2d2  | \
w:   |  ne me   |  *  ya  |   | 
e3d {d}d4  | d8  | d2^c2 =B3c  | 
w:  *  *  *  re    |   |  *  SAZ  | 
d2ef edd^c  | d2{e}d^c =B3c  | d2ef edd^c  | \
w:   |   |   | 
d2e^f g4  | 
w:   | 
g2g2 g2f2  | e2d2 c4  | d2d2 e3d  | c2d2 c2_1/4B2  | \
w:  Bu la ma  |  dım  *  der  |  di me  ça  |   | 
e2d2 edc2  | c4 c2_1/4B2  | 
w:  *  *  re   |   | 
d4 dcBA  | _1/4B2c2 cB{c}_2/4BA  | _1/4B2zd c_2/4BAG  | \
w:  a man    |   |  *  SAZ  | 
_1/4B2c2 B2d2  | 
w:  Gör me dim   | 
c2B2 A3c  | B2A2 AGG^F  | G2AB AGG^F  | \
w:  *  *  hiç   |   |   | 
G4 d4  | e2^f2 g2=f2  | 
w:  *  ah   |  ci van_ A li  | 
e2d2 c2d2  | c2BA _1/4B2c2  | _1/4B2d2 c2B2  | \
w:  şi mi  Tu na   |  bo  |   | 
cBA6  | A4 d4  | dcBA _1/4B2c2  | 
w:  yun  |   |  da    | 
c_1/4B{c}_2/4BA _1/4B2zd  | cBAG _1/4B2c2  | \
w:  *  *  *  *  *  *  SAZ  |  *  *  *  *  Gör me  | 
_1/4B2d2 c2_2/4B2  | A3c B2A2  | 
w:  dim   |  hiç   | 
AGG^F G2AB  | AG{A}G^F G4  | d4 e2^f2  | \
w:   |   |  ah  ars lan_  | 
g2f2 e2d2  | c2d2 c2BA  | 
w:  A li şi mi   |  Tu na  bo  | 
_1/4B2c2 B2d2  | c2_1/4B2 c_2/4BA2  | \
w:   |  *  *  yun  | 
A4 e4  | d2cB A4  | |


